src/img/svg/logo-bank/27.svg

<svg width="80" height="32" viewBox="0 0 80 32" fill="none" xmlns="http://www.w3.org/2000/svg">
<g clip-path="url(#clip0_34_3492)">
<path d="M16.242 4L8.12109 12.1217H16.242V28.3643L24.3637 20.2622V4H16.242Z" fill="#EA5616"/>
<path d="M8.12169 28.3643L16.2434 20.2426H8.12169V4L0 12.1021V28.3643H8.12169Z" fill="#2C2D84"/>
<path fill-rule="evenodd" clip-rule="evenodd" d="M53.4995 16.176C53.4995 18.7552 55.0991 20.8417 57.9453 20.8417V20.8395C59.7542 20.8395 61.0991 19.9069 61.9244 18.6141L64.5346 21.2251C62.9293 23.4139 60.3764 24.7059 57.6618 24.7036C52.952 24.7036 49.2355 20.8858 49.2355 16.176C49.2355 11.1341 52.952 7.64844 57.6618 7.64844C60.1866 7.64626 62.5818 8.7656 64.1995 10.7037L61.6075 13.2959C61.1502 12.7272 59.8618 11.5067 57.8644 11.5067C54.6644 11.5067 53.4995 14.1054 53.4995 16.176ZM36.7478 24.3028H32.4844V8.06013H47.508V24.3028H43.2446V11.7144H36.7478V24.3028ZM70.2591 14.146H73.9018C77.3555 14.146 79.7915 15.7752 79.7915 19.224C79.7915 22.6728 77.3555 24.3028 74.1044 24.3028H65.9951V8.06013H78.3706V11.7144H70.2591V14.146ZM73.4951 20.8518H70.2586V17.6063H73.4951C74.5004 17.6063 75.5204 18.0028 75.5204 19.224C75.5204 20.4452 74.5022 20.8518 73.4951 20.8518Z" fill="#2C2D84"/>
</g>
<defs>
<clipPath id="clip0_34_3492">
<rect width="80" height="32" fill="white"/>
</clipPath>
</defs>
</svg>

<svg width="80" height="32" viewBox="0 0 80 32" fill="none" xmlns="http://www.w3.org/2000/svg"><g clip-path="url(#a)"><path d="m16.242 4-8.12 8.122h8.12v16.242l8.122-8.102V4h-8.122Z" fill="#EA5616"/><path d="m8.122 28.364 8.121-8.121H8.122V4L0 12.102v16.262h8.122Z" fill="#2C2D84"/><path fill-rule="evenodd" clip-rule="evenodd" d="M53.5 16.176c0 2.58 1.6 4.666 4.445 4.666v-.002c1.81 0 3.154-.933 3.98-2.226l2.61 2.611a8.514 8.514 0 0 1-6.873 3.479c-4.71 0-8.426-3.818-8.426-8.528 0-5.042 3.716-8.528 8.426-8.528a8.506 8.506 0 0 1 6.538 3.056l-2.593 2.592c-.457-.569-1.745-1.79-3.743-1.79-3.2 0-4.364 2.6-4.364 4.67Zm-16.752 8.127h-4.264V8.06h15.024v16.243h-4.263V11.714h-6.497v12.589Zm33.511-10.157h3.643c3.454 0 5.89 1.63 5.89 5.078 0 3.449-2.436 5.079-5.688 5.079h-8.109V8.06h12.376v3.654h-8.112v2.432Zm3.236 6.706H70.26v-3.246h3.236c1.005 0 2.025.397 2.025 1.618s-1.018 1.628-2.025 1.628Z" fill="#2C2D84"/></g><defs><clipPath id="a"><path fill="#fff" d="M0 0h80v32H0z"/></clipPath></defs></svg>
